svg/aws-ec2-c6i.svg

<?xml version="1.0" encoding="UTF-8"?>
<svg xmlns="http://www.w3.org/2000/svg" xmlns:xlink="http://www.w3.org/1999/xlink" width="32" height="32" viewBox="0 0 32 32">
<path fill-rule="evenodd" fill="rgb(83.137255%, 35.686275%, 2.745098%)" fill-opacity="1" d="M 6 26 L 26 26 L 26 6 L 6 6 Z M 27.332031 8.667969 L 27.332031 11.332031 L 30.667969 11.332031 L 30.667969 12.667969 L 27.332031 12.667969 L 27.332031 15.332031 L 30.667969 15.332031 L 30.667969 16.667969 L 27.332031 16.667969 L 27.332031 19.332031 L 30.667969 19.332031 L 30.667969 20.667969 L 27.332031 20.667969 L 27.332031 23.332031 L 30.667969 23.332031 L 30.667969 24.667969 L 27.332031 24.667969 L 27.332031 26.667969 C 27.332031 27.035156 27.035156 27.332031 26.667969 27.332031 L 24.667969 27.332031 L 24.667969 30.667969 L 23.332031 30.667969 L 23.332031 27.332031 L 20.667969 27.332031 L 20.667969 30.667969 L 19.332031 30.667969 L 19.332031 27.332031 L 16.667969 27.332031 L 16.667969 30.667969 L 15.332031 30.667969 L 15.332031 27.332031 L 12.667969 27.332031 L 12.667969 30.667969 L 11.332031 30.667969 L 11.332031 27.332031 L 8.667969 27.332031 L 8.667969 30.667969 L 7.332031 30.667969 L 7.332031 27.332031 L 5.332031 27.332031 C 4.964844 27.332031 4.667969 27.035156 4.667969 26.667969 L 4.667969 24.667969 L 1.332031 24.667969 L 1.332031 23.332031 L 4.667969 23.332031 L 4.667969 20.667969 L 1.332031 20.667969 L 1.332031 19.332031 L 4.667969 19.332031 L 4.667969 16.667969 L 1.332031 16.667969 L 1.332031 15.332031 L 4.667969 15.332031 L 4.667969 12.667969 L 1.332031 12.667969 L 1.332031 11.332031 L 4.667969 11.332031 L 4.667969 8.667969 L 1.332031 8.667969 L 1.332031 7.332031 L 4.667969 7.332031 L 4.667969 5.332031 C 4.667969 4.964844 4.964844 4.667969 5.332031 4.667969 L 7.332031 4.667969 L 7.332031 1.332031 L 8.667969 1.332031 L 8.667969 4.667969 L 11.332031 4.667969 L 11.332031 1.332031 L 12.667969 1.332031 L 12.667969 4.667969 L 15.332031 4.667969 L 15.332031 1.332031 L 16.667969 1.332031 L 16.667969 4.667969 L 19.332031 4.667969 L 19.332031 1.332031 L 20.667969 1.332031 L 20.667969 4.667969 L 23.332031 4.667969 L 23.332031 1.332031 L 24.667969 1.332031 L 24.667969 4.667969 L 26.667969 4.667969 C 27.035156 4.667969 27.332031 4.964844 27.332031 5.332031 L 27.332031 7.332031 L 30.667969 7.332031 L 30.667969 8.667969 Z M 20.75 19.152344 L 21.851562 19.152344 L 21.851562 14.402344 L 20.75 14.402344 Z M 21.300781 13.617188 C 21.507812 13.617188 21.667969 13.5625 21.785156 13.449219 C 21.902344 13.339844 21.960938 13.183594 21.960938 12.984375 C 21.960938 12.785156 21.902344 12.628906 21.785156 12.515625 C 21.667969 12.40625 21.507812 12.347656 21.300781 12.347656 C 21.09375 12.347656 20.933594 12.40625 20.816406 12.515625 C 20.695312 12.628906 20.636719 12.785156 20.636719 12.984375 C 20.636719 13.183594 20.695312 13.339844 20.816406 13.449219 C 20.933594 13.5625 21.09375 13.617188 21.300781 13.617188 M 16.335938 16.417969 C 16.378906 17.742188 16.8125 18.40625 17.628906 18.40625 C 17.964844 18.40625 18.226562 18.304688 18.414062 18.097656 C 18.601562 17.894531 18.695312 17.605469 18.695312 17.238281 C 18.695312 16.867188 18.597656 16.582031 18.402344 16.386719 C 18.210938 16.1875 17.929688 16.089844 17.554688 16.089844 C 17.128906 16.097656 16.707031 16.210938 16.335938 16.417969 M 15.796875 18.5 C 15.402344 17.96875 15.207031 17.1875 15.207031 16.15625 C 15.207031 15.011719 15.441406 14.121094 15.910156 13.488281 C 16.378906 12.851562 17.042969 12.535156 17.894531 12.535156 C 18.160156 12.535156 18.429688 12.566406 18.699219 12.625 C 18.972656 12.683594 19.203125 12.761719 19.394531 12.863281 L 19.394531 13.675781 C 19.183594 13.59375 18.960938 13.53125 18.738281 13.492188 C 18.488281 13.445312 18.257812 13.421875 18.050781 13.421875 C 17.492188 13.421875 17.074219 13.609375 16.796875 13.980469 C 16.519531 14.355469 16.367188 14.929688 16.335938 15.707031 C 16.800781 15.398438 17.347656 15.234375 17.90625 15.234375 C 18.484375 15.234375 18.949219 15.410156 19.300781 15.761719 C 19.648438 16.113281 19.824219 16.578125 19.824219 17.164062 C 19.824219 17.574219 19.734375 17.941406 19.550781 18.261719 C 19.367188 18.585938 19.089844 18.847656 18.757812 19.015625 C 18.382812 19.207031 17.96875 19.300781 17.546875 19.292969 C 16.777344 19.292969 16.191406 19.027344 15.796875 18.5 M 10.617188 18.441406 C 10.09375 17.894531 9.828125 17.085938 9.828125 16.015625 C 9.828125 14.914062 10.101562 14.066406 10.648438 13.472656 C 11.191406 12.878906 11.972656 12.582031 12.992188 12.582031 C 13.554688 12.582031 14.070312 12.664062 14.542969 12.835938 L 14.542969 13.765625 C 13.925781 13.636719 13.4375 13.570312 13.085938 13.570312 C 12.375 13.570312 11.847656 13.753906 11.503906 14.121094 C 11.160156 14.488281 10.988281 15.054688 10.988281 15.820312 L 10.988281 16.042969 C 10.988281 16.804688 11.15625 17.367188 11.5 17.730469 C 11.839844 18.09375 12.363281 18.273438 13.066406 18.273438 C 13.460938 18.273438 13.984375 18.199219 14.636719 18.042969 L 14.636719 18.976562 C 14.144531 19.167969 13.585938 19.265625 12.957031 19.265625 C 11.921875 19.265625 11.144531 18.992188 10.617188 18.441406 M 10.617188 18.441406 "/>
</svg>

<svg role="img" viewBox="0 0 32 32" height="32" width="32" xmlns="http://www.w3.org/2000/svg"><path d="M6 26h20V6H6ZM27.332 8.668v2.664h3.336v1.336h-3.336v2.664h3.336v1.336h-3.336v2.664h3.336v1.336h-3.336v2.664h3.336v1.336h-3.336v2a.664.664 0 0 1-.664.664h-2v3.336h-1.336v-3.336h-2.664v3.336h-1.336v-3.336h-2.664v3.336h-1.336v-3.336h-2.664v3.336h-1.336v-3.336H8.668v3.336H7.332v-3.336h-2a.664.664 0 0 1-.664-.664v-2H1.332v-1.336h3.336v-2.664H1.332v-1.336h3.336v-2.664H1.332v-1.336h3.336v-2.664H1.332v-1.336h3.336V8.668H1.332V7.332h3.336v-2c0-.367.297-.664.664-.664h2V1.332h1.336v3.336h2.664V1.332h1.336v3.336h2.664V1.332h1.336v3.336h2.664V1.332h1.336v3.336h2.664V1.332h1.336v3.336h2c.367 0 .664.297.664.664v2h3.336v1.336ZM20.75 19.152h1.102v-4.75H20.75Zm.55-5.535c.208 0 .368-.055.485-.168.117-.11.176-.265.176-.465 0-.199-.059-.355-.176-.468-.117-.11-.277-.168-.484-.168-.207 0-.367.058-.485.168-.12.113-.18.27-.18.468 0 .2.06.356.18.465.118.114.278.168.485.168m-4.965 2.801c.043 1.324.477 1.988 1.293 1.988.336 0 .598-.101.785-.308.188-.203.281-.493.281-.86 0-.37-.097-.656-.293-.851-.191-.2-.472-.297-.847-.297a2.61 2.61 0 0 0-1.22.328m-.538 2.082c-.395-.531-.59-1.312-.59-2.344 0-1.144.234-2.035.703-2.668.469-.636 1.133-.953 1.985-.953.265 0 .535.031.804.09.274.059.504.137.696.238v.813a3.484 3.484 0 0 0-.657-.184c-.25-.047-.48-.07-.687-.07-.559 0-.977.187-1.254.558-.277.375-.43.95-.461 1.727a2.84 2.84 0 0 1 1.57-.473c.578 0 1.043.176 1.395.528.347.351.523.816.523 1.402 0 .41-.09.777-.273 1.098a1.896 1.896 0 0 1-.793.754 2.56 2.56 0 0 1-1.211.277c-.77 0-1.356-.266-1.75-.793m-5.18-.059c-.523-.546-.789-1.355-.789-2.425 0-1.102.274-1.95.82-2.543.543-.594 1.325-.891 2.344-.891.563 0 1.078.082 1.551.254v.93c-.617-.13-1.105-.196-1.457-.196-.711 0-1.238.184-1.582.551-.344.367-.516.934-.516 1.7v.222c0 .762.168 1.324.512 1.687.34.364.863.543 1.566.543.395 0 .918-.074 1.57-.23v.934c-.491.191-1.05.289-1.679.289-1.035 0-1.812-.274-2.34-.825m0 0" fill="rgb(83.137255%, 35.686275%, 2.745098%)" fill-rule="evenodd"/></svg>
